X:142 
T:McFadden's Reel 2 
T:Glass of Beer
B:CRE3.168	(RÃÂÃÂÃÂÃÂ­l Mhic PhÃÂÃÂÃÂÃÂ¡idin)
F:file ID: cre.3/142mcfad2
R:reel
L:1/8
%Q:180
M:C
K:D
FBB2 fbab|fBB2 efde|fBB2 dffe|1 dfaf efde:|2 dfaf edBA||
|:d3e f2fe|defd eAA/G/A|dcde fafe|1 dfaf edBA:|2 fdaf efde|B8||

%%%

